UI/Weather/SVG/stormy-day_outline_24px.svg

<svg width="24" height="24" viewBox="0 0 24 24" fill="none" xmlns="http://www.w3.org/2000/svg">
<path d="M2 13H4.22L4.1 13.37L3.56 15H2V13ZM11 9H9C9 8.46957 8.78929 7.96086 8.41421 7.58579C8.03914 7.21071 7.53043 7 7 7H6C6 6.46957 5.78929 5.96086 5.41421 5.58579C5.03914 5.21071 4.53043 5 4 5H2V7H3C3.26522 7 3.51957 7.10536 3.70711 7.29289C3.89464 7.48043 4 7.73478 4 8V9H6C6.26522 9 6.51957 9.10536 6.70711 9.29289C6.89464 9.48043 7 9.73478 7 10V11H11C11.2652 11 11.5196 11.1054 11.7071 11.2929C11.8946 11.4804 12 11.7348 12 12C11.9987 12.1782 11.9498 12.3528 11.8584 12.5058C11.767 12.6587 11.6363 12.7845 11.48 12.87L10.9 14.63L10.77 15H11C11.7956 15 12.5587 14.6839 13.1213 14.1213C13.6839 13.5587 14 12.7956 14 12C14 11.2044 13.6839 10.4413 13.1213 9.87868C12.5587 9.31607 11.7956 9 11 9ZM7 19V22L11 19V17H8L9 14H6L5 17V19H7ZM15 3V4.12C14.3387 3.99999 13.6613 3.99999 13 4.12V3C13 2.73478 13.1054 2.48043 13.2929 2.29289C13.4804 2.10536 13.7348 2 14 2C14.2652 2 14.5196 2.10536 14.7071 2.29289C14.8946 2.48043 15 2.73478 15 3ZM19.68 5.77L18.89 6.56C18.4998 6.01025 18.0197 5.5302 17.47 5.14L18.26 4.35C18.4483 4.1617 18.7037 4.05591 18.97 4.05591C19.2363 4.05591 19.4917 4.1617 19.68 4.35C19.8683 4.5383 19.9741 4.7937 19.9741 5.06C19.9741 5.3263 19.8683 5.5817 19.68 5.77ZM22.12 10C22.12 10.2652 22.0146 10.5196 21.8271 10.7071C21.6396 10.8946 21.3852 11 21.12 11H20C20.12 10.3387 20.12 9.66127 20 9H21.12C21.3852 9 21.6396 9.10536 21.8271 9.29289C22.0146 9.48043 22.12 9.73478 22.12 10ZM19.68 16C19.4926 16.1863 19.2392 16.2908 18.975 16.2908C18.7108 16.2908 18.4574 16.1863 18.27 16L17.48 15.21C18.0297 14.8198 18.5098 14.3397 18.9 13.79L19.69 14.58C19.8763 14.7674 19.9808 15.0208 19.9808 15.285C19.9808 15.5492 19.8763 15.8026 19.69 15.99L19.68 16ZM18.13 10.28C18.1303 11.032 17.9339 11.771 17.5603 12.4236C17.1866 13.0762 16.6487 13.6196 16 14C16.01 13.8301 16.01 13.6599 16 13.49V12.42C16.0096 11.0813 15.5133 9.78832 14.6102 8.79998C13.7072 7.81165 12.4642 7.2009 11.13 7.09C11.8934 6.388 12.8929 5.99889 13.93 6C14.4868 6.00523 15.0371 6.12008 15.5496 6.33801C16.062 6.55593 16.5265 6.87266 16.9165 7.2701C17.3065 7.66754 17.6144 8.13791 17.8226 8.65435C18.0308 9.17079 18.1353 9.72319 18.13 10.28Z" fill="#0F1621"/>
</svg>

<svg xmlns="http://www.w3.org/2000/svg" width="24" height="24" viewBox="0 0 24 24"><rect width="24" height="24" style="fill:none"/><path d="M2,13H4.22l-.12.37L3.56,15H2Zm9-4H9A2,2,0,0,0,7,7H6A2,2,0,0,0,4,5H2V7H3A1,1,0,0,1,4,8V9H6a1,1,0,0,1,1,1v1h4a1,1,0,0,1,1,1,1,1,0,0,1-.52.87l-.58,1.76-.13.37H11a3,3,0,0,0,0-6ZM7,19v3l4-3V17H8l1-3H6L5,17v2ZM15,3V4.12a5.6,5.6,0,0,0-2,0V3a1,1,0,0,1,2,0Zm4.68,2.77-.79.79a6,6,0,0,0-1.42-1.42l.79-.79a1,1,0,0,1,1.42,1.42ZM22.12,10a1,1,0,0,1-1,1H20a5.6,5.6,0,0,0,0-2h1.12A1,1,0,0,1,22.12,10Zm-2.44,6a1,1,0,0,1-1.41,0h0l-.79-.79a6,6,0,0,0,1.42-1.42l.79.79a1,1,0,0,1,0,1.41Zm-1.55-5.72A4.31,4.31,0,0,1,16,14a4.34,4.34,0,0,0,0-.51V12.42a5.31,5.31,0,0,0-4.87-5.33A4.13,4.13,0,0,1,13.93,6a4.24,4.24,0,0,1,4.2,4.28Z"/></svg>
